X: 57
T: The Laddie with the Pladdie
T: Strathspey, D
L: 1/16
M: C
K: D
|: f3g1 f3e1 d3e1 d1B3| A3F1 A3d1 c1e3e4| f3g1 f3e1 d3e1 d1B3| c3d1 e3a1 f1d3 d4:| 
|: A4 (3F2E2D2 F1A3 A3d1| B3A1 B3d1 c1e3 e1f3| A4 (3F2E2D2 F1A3 A3d1| c3d1 e3a1 f1d3d4:| 
|: F1A3 D3A1 (3F2G2A2 d3A1| F1A3 D3F1 G1E3 E3A1| F1A3 D3A1 (3F2G2A2 d3A1| (3G2F2E2 (3E2A2G2 F1D3D4:| 
|: a3f1 d1f3 g3f1 e1d3| g3e1 (3f2e2d2 c1e3 (3e2f2g2| a3f1 d1f3 g3f1 e1d3| (3f2g2a2 (3e2f2g2 f1d3d4:| 
f4 (3a2g2f2 e4 (3g2f2e2| d4 (3f2e2d2 c4 (3e2d2c2| B4 (3d2c2B2 A3d1 f3a1| g3f1 e3d1 c1a3 a3g1|
(3f2e2f2 (3a2g2f2 (3e2d2e2 (3g2f2e2| (3d2c2d2 (3f2e2d2 (3c2B2c2 (3e2d2c2| (3B2A2B2 (3d2c2B2 A3d1 f3a1| g3f1 e3a1 f1d3d4|| 
D: Ray Ellis, More Like Me!, REC001, 1999
